public/css.svg

<svg xmlns="http://www.w3.org/2000/svg"  viewBox="0 0 48 48" width="144px" height="144px"><linearGradient id="TQDriqswrKwPOniLrPT12a" x1="16.33" x2="32.293" y1="-2.748" y2="41.109" gradientUnits="userSpaceOnUse"><stop offset="0" stop-color="#2aa4f4"/><stop offset="1" stop-color="#007ad9"/></linearGradient><path fill="url(#TQDriqswrKwPOniLrPT12a)" d="M7.192,7.176l2.627,29.77c0.109,1.237,0.97,2.28,2.164,2.621l10.643,3.041	c0.898,0.257,1.849,0.257,2.747,0l10.643-3.041c1.194-0.341,2.055-1.383,2.164-2.621l2.627-29.77C40.911,6.006,39.99,5,38.816,5	H9.184C8.01,5,7.089,6.006,7.192,7.176z"/><path fill="#35c1f1" d="M24,8v31.9l9.876-2.822c0.797-0.228,1.371-0.924,1.443-1.749l2.286-26.242	C37.656,8.502,37.196,8,36.609,8H24z"/><path fill="#fff" d="M33.1,13H24v4h4.9l-0.3,4H24v4h4.4l-0.3,4.5L24,30.9v4.2l7.9-2.6L32.6,21l0,0L33.1,13z"/><path fill="#d6e0e9" d="M24,13v4h-8.9l-0.3-4H24z M19.4,21l0.2,4H24v-4H19.4z M19.8,27h-4l0.3,5.5l7.9,2.6v-4.2l-4.1-1.4	L19.8,27z"/><path d="M33.1,13l-0.5,8l-0.7,11.5L24,35.1l-7.9-2.6L15.8,27h4l0.1,2.5l4.1,1.4l4.1-1.4l0.3-4.5H24h-4.4l-0.2-4H24h4.6l0.3-4H24 h-8.9l-0.3-4H24H33.1 M34.164,12H33.1H24h-9.2h-1.078l0.081,1.075l0.3,4L14.172,18H15.1H24h3.822l-0.15,2H24h-4.6h-1.051 l0.052,1.05l0.2,4L18.649,26H15.8h-1.056l0.058,1.054l0.3,5.5l0.037,0.682l0.649,0.214l7.9,2.6L24,36.153l0.313-0.103l7.9-2.6 l0.644-0.212l0.041-0.677l0.7-11.5l0.5-7.998L34.164,12L34.164,12z M20.761,26H24h3.331l-0.185,2.769L24,29.843l-3.128-1.068 l-0.073-1.815L20.761,26L20.761,26z" opacity=".05"/><path d="M33.1,13l-0.5,8l-0.7,11.5L24,35.1l-7.9-2.6L15.8,27h4l0.1,2.5l4.1,1.4l4.1-1.4l0.3-4.5H24h-4.4l-0.2-4H24h4.6l0.3-4H24 h-8.9l-0.3-4H24H33.1 M33.632,12.5H33.1H24h-9.2h-0.539l0.04,0.537l0.3,4l0.035,0.463H15.1H24h4.361l-0.225,3H24h-4.6h-0.526 l0.026,0.525l0.2,4l0.024,0.475H19.6H24h3.866l-0.242,3.634L24,30.372l-3.614-1.234L20.3,26.98L20.28,26.5H19.8h-4h-0.528 l0.029,0.527l0.3,5.5l0.019,0.341l0.324,0.107l7.9,2.6L24,35.626l0.156-0.051l7.9-2.6l0.322-0.106l0.021-0.339l0.7-11.5l0.5-7.999 L33.632,12.5L33.632,12.5z" opacity=".07"/></svg>

<svg xmlns="http://www.w3.org/2000/svg"  viewBox="0 0 48 48" width="96px" height="96px"><path fill="#0277BD" d="M41,5H7l3,34l14,4l14-4L41,5L41,5z"/><path fill="#039BE5" d="M24 8L24 39.9 35.2 36.7 37.7 8z"/><path fill="#FFF" d="M33.1 13L24 13 24 17 28.9 17 28.6 21 24 21 24 25 28.4 25 28.1 29.5 24 30.9 24 35.1 31.9 32.5 32.6 21 32.6 21z"/><path fill="#EEE" d="M24,13v4h-8.9l-0.3-4H24z M19.4,21l0.2,4H24v-4H19.4z M19.8,27h-4l0.3,5.5l7.9,2.6v-4.2l-4.1-1.4L19.8,27z"/></svg>
